src/assets/filled/Link2.svg

<svg width="24" height="24" viewBox="0 0 24 24"  xmlns="http://www.w3.org/2000/svg">
<path d="M7.24989 12C7.24989 11.59 7.58989 11.25 7.99989 11.25H10.9999V7.5C10.9999 6.95 10.5499 6.5 9.99989 6.5H7.76989C4.61989 6.5 1.87989 9.08 1.99989 12.22C2.05989 13.65 2.65989 14.94 3.60989 15.89C4.60989 16.88 5.97989 17.5 7.49989 17.5H9.99989C10.5499 17.5 10.9999 17.05 10.9999 16.5V12.75H7.99989C7.58989 12.75 7.24989 12.41 7.24989 12Z" />
<path d="M20.39 8.11C19.39 7.12 18.02 6.5 16.5 6.5H14C13.45 6.5 13 6.95 13 7.5V11.25H16C16.41 11.25 16.75 11.59 16.75 12C16.75 12.41 16.41 12.75 16 12.75H13V16.5C13 17.05 13.45 17.5 14 17.5H16.23C19.38 17.5 22.12 14.92 21.99 11.78C21.94 10.35 21.33 9.06 20.39 8.11Z" />
<path d="M13 11.25H11V12.75H13V11.25Z" />
</svg>

<?xml version="1.0" encoding="UTF-8"?>
<svg width="24" height="24" viewBox="0 0 24 24" xmlns="http://www.w3.org/2000/svg">
 <path d="m7.2499 12c0-0.41 0.34-0.75 0.75-0.75h3v-3.75c0-0.55-0.45-1-1-1h-2.23c-3.15 0-5.89 2.58-5.77 5.72 0.06 1.43 0.66 2.72 1.61 3.67 1 0.99 2.37 1.61 3.89 1.61h2.5c0.55001 0 1-0.45 1-1v-3.75h-3c-0.41 0-0.75-0.34-0.75-0.75z"/>
 <path d="m20.39 8.11c-1-0.99-2.37-1.61-3.89-1.61h-2.5c-0.55 0-1 0.45-1 1v3.75h3c0.41 0 0.75 0.34 0.75 0.75s-0.34 0.75-0.75 0.75h-3v3.75c0 0.55 0.45 1 1 1h2.23c3.15 0 5.89-2.58 5.76-5.72-0.05-1.43-0.66-2.72-1.6-3.67z"/>
 <path d="m13 11.25h-2v1.5h2v-1.5z"/>
</svg>
